fs/call_dismiss_16_filled.svg

<svg viewBox="0 0 16 16" fill="none" xmlns="http://www.w3.org/2000/svg" height="1em" width="1em">
  <path d="M5.75619 7.02272L6.82888 6.03879C7.42977 5.48761 7.6359 4.62683 7.34984 3.86327L6.89146 2.63973C6.53635 1.69183 5.5051 1.18376 4.53712 1.4798C2.82092 2.00467 1.50193 3.59944 1.908 5.49404C2.17505 6.73998 2.68561 8.30388 3.65402 9.96863C4.62409 11.6362 5.73194 12.869 6.6816 13.7336C8.11604 15.0395 10.1662 14.7129 11.4852 13.4832C12.219 12.799 12.294 11.6621 11.6564 10.8875L10.8158 9.86644C10.2975 9.23692 9.44901 8.98504 8.67123 9.22984L7.28278 9.66685C7.22939 9.61197 7.16753 9.54635 7.10006 9.47112C6.87193 9.21677 6.58657 8.86028 6.34658 8.44461C6.10659 8.02893 5.94055 7.60356 5.83433 7.27882C5.80292 7.18278 5.77702 7.0964 5.75619 7.02272ZM14.3536 1.64645C14.5488 1.84171 14.5488 2.15829 14.3536 2.35355L12.7071 4L14.3536 5.64645C14.5488 5.84171 14.5488 6.15829 14.3536 6.35355C14.1583 6.54882 13.8417 6.54882 13.6464 6.35355L12 4.70711L10.3536 6.35355C10.1583 6.54882 9.84171 6.54882 9.64645 6.35355C9.45118 6.15829 9.45118 5.84171 9.64645 5.64645L11.2929 4L9.64645 2.35355C9.45118 2.15829 9.45118 1.84171 9.64645 1.64645C9.84171 1.45118 10.1583 1.45118 10.3536 1.64645L12 3.29289L13.6464 1.64645C13.8417 1.45118 14.1583 1.45118 14.3536 1.64645Z" fill="#212121"/>
</svg>

<svg viewBox="0 0 16 16" fill="none" xmlns="http://www.w3.org/2000/svg" height="1em" width="1em">
  <path d="m5.756 7.023 1.073-.984a2 2 0 0 0 .52-2.176L6.892 2.64a1.916 1.916 0 0 0-2.354-1.16c-1.716.525-3.035 2.12-2.629 4.014a15.3 15.3 0 0 0 1.746 4.475c.97 1.667 2.078 2.9 3.028 3.765 1.434 1.306 3.484.979 4.803-.25a1.899 1.899 0 0 0 .171-2.597l-.84-1.02A2 2 0 0 0 8.67 9.23l-1.388.437a6.618 6.618 0 0 1-.936-1.222 6.268 6.268 0 0 1-.59-1.422Zm8.598-5.377a.5.5 0 0 1 0 .708L12.707 4l1.647 1.646a.5.5 0 0 1-.708.708L12 4.707l-1.646 1.647a.5.5 0 0 1-.708-.708L11.293 4 9.646 2.354a.5.5 0 1 1 .708-.708L12 3.293l1.646-1.647a.5.5 0 0 1 .708 0Z" fill="#212121"/>
</svg>
